X:1
T:When Jesus Came My Way
T:When Jesus Came My Way
T:Isaac Hickman Meredith
T:James Hoffman Batten, 1903
T:Public Domain Courtesy of the Cyber Hymnal™
T:Public Domain Courtesy of the Cyber Hymnal™
C:Isaac Hickman Meredith
Z:Public Domain
Z:Courtesy of the Cyber Hymnal™
%%score ( 1 2 ) ( 3 4 )
L:1/8
Q:1/4=110
M:4/4
K:G
V:1 treble 
V:2 treble 
V:3 bass 
V:4 bass 
V:1
 D | [DG]2 [DG][DG] [DG]2 [DF][DG] | [GB]2 [FA]2 [DG]3 D | [DG][DG][DG][DG] [DG]2 [GB][Gc] | %4
w: 1.~The|beg- gar sat blind by the|way- side road, Till|Je- sus came a- long, came a-|
w: 2.~One|word from the Mas- ter, his|eyes gave sight, When|Je- sus came a- long, came a-|
w: 3.~I|heard the sweet sound of the|an- gel throng, When|Je- sus came a- long, came a-|
w: 4.~Oh!|come to the Sav- ior; be|healed of sin, To-|day He comes a- long, comes a-|
 [Gd]2 [Gd]2 [FA]3 D | [DG]2 [DG][DG] [DG]2 [DF][DG] | [GB]2 [FA]2 [EG]3 D | %7
w: long that way. And|then he re- joiced in the|power of God, When|
w: long that way. And|faith in His word filled his|heart with light, When|
w: long my way. As|they joined in the glad re-|demp- tion song, When|
w: long your way. The|sin- ner cries out, and the|light breaks in, When|
 [CE][CE][CE][CE] [B,D]2 [CF]2 | [B,G]6 z ||"^Refrain" [Gd] | [Gd]2 [GB][Gc] [Gd]2 [Gd][GB] | %11
w: Je- sus came a- long that|way.|||
w: Je- sus came a- long that|way.|||
w: Je- sus came a- long that|way.|||
w: Je- sus comes a- long that|way.|||
 [DG]2 [FA]2 [GB]3 [Gd] | [Gd][Gd][Gd][Gd] [Ge]2 [Gd][GB] | [FA]2 [GA]2 !fermata![FA]3 [Fd] | %14
w: |||
w: |||
w: |||
w: |||
 [Gd]2 [GB][Gc] [Gd]2 [Gd][GB] | [DG]2 [FA]2 [GB]3 [DG] | [GB][GB][DG]D [CE]2 [CF]2 | [B,G]6 z |] %18
w: ||||
w: ||||
w: ||||
w: ||||
V:2
 D | x8 | x7 D | x8 | x7 D | x8 | x7 D | x8 | x7 || x | x8 | x8 | x8 | x8 | x8 | x8 | x3 D x4 | %17
 x7 |] %18
V:3
 [G,B,] | [G,B,]2 [G,B,][G,B,] [G,B,]2 [G,A,][G,B,] | [D,D]2 [D,C]2 [G,B,]3 [G,B,] | %3
w: ~|~ ~ ~ ~ ~ ~|~ ~ ~ ~|
 [G,B,][G,B,][G,B,][G,B,] [G,B,]2 [G,D][G,E] | [G,B,]2 [B,,D]2 [D,D]3 [F,C] | %5
w: ~ ~ ~ ~ ~ ~ ~|~ ~ ~ ~|
 [G,B,]2 [G,B,][G,B,] [G,B,]2 [G,A,][G,B,] | [D,D]2 [^D,C]2 [E,B,]3 [B,,G,] | %7
w: ~ ~ ~ ~ ~ ~|~ ~ ~ ~|
 [C,G,][C,G,][C,G,][C,G,] [D,G,]2 [D,A,]2 | [G,,G,]6 z || [G,B,] | %10
w: ~ ~ ~ ~ ~ ~|~|My|
 [G,B,]2 [G,D][G,E] [G,B,]2 [G,B,][G,D] | [G,B,]2 [D,D]2 [G,D]3 [G,B,] | %12
w: life was all dark- ened by|guilt and sin, Till|
 [G,B,][G,B,][G,B,][G,B,] [G,B,] [G,C]2 [G,B,] | [D,D]2 [E,^C]2 !fermata![D,D]3 [D,=C] | %14
w: Je- sus came a- long, came a-|long my way. But|
 [G,B,]2 [G,D][G,E] [G,B,]2 [G,B,][G,D] | [G,B,]2 [D,D]2 [G,D]3 [G,B,] | %16
w: now ’tis all bright- ness and|peace with- in, Since|
 [G,D][G,D][G,B,][B,,G,] [C,G,]2 D,2 | [G,,D,]6 z |] %18
w: Je- sus came a- long my|way.|
V:4
 x | x8 | x8 | x8 | x8 | x8 | x8 | x8 | x7 || x | x8 | x8 | x8 | x8 | x8 | x8 | x6 D,2 | x7 |] %18

